!!!OTL: AUF AUF IHR KRIEGER
!!!ARE: Europa, Mitteleuropa, Oesterreich
!!!SCT: E0345
!!!YEM: Copyright 1995, estate of Helmut Schaffrath.
**kern
*ICvox
*Ivox
*M4/4
*k[b-e-a-]
*E-:
{4b-
=1
4.ee-
8b-
8b-
8a-
8g
8f
=2
4e-
4e-
4e-
8r}
{8g
=3
8f
8b-
8dd
8ff
4.ee-
8an
=4
2b-
4r}
{8b-
8a-
=5
4g
4g
4.g
8b-
=6
8b-
8a-
8a-
8g
4.a-}
{8g
=7
8g
8f
4f
4.f
8a-
=8
8a-
8g
8g
8f
4g}
{4b-
=9
4.ee-
8b-
8a-
8g
8f
8e-
=10
2b-}
{2dd
=11
4.ee-
8cc
8b-
8a-
8g
8f
=12
2e-
4r}
==
!!!AGN: historisches Lied, Krieg (1809)
!!!ONB: ESAC (Essen Associative Code) Database: ERK1
!!!AMT: simple quadruple
!!!AIN: vox
!!!EED: Helmut Schaffrath
!!!EEV: 1.0
*-
